app/dist/common/images/national-research.svg

<svg height="18" viewBox="0 0 18 18" width="18" xmlns="http://www.w3.org/2000/svg"><path d="m0 0h18v18h-18z" fill="#f0f3fa"/><path d="m14.3 10c-.31.3-.73.5-1.16.5-.82 0-1.62-.74-1.62-1.5 0-1 .8-1.5 1.62-1.5.43 0 .85.2 1.15.5h.71c-.37-.6-1.06-1-1.86-1-1.18 0-2.14.9-2.14 2s.96 2 2.14 2c.8 0 1.49-.4 1.86-1zm-5.8-3h-.5v4h.5v-2.8c.3-.45.65-.7 1-.7h.96v-.5h-.96c-.31 0-.72.28-1 .54zm-4.5 0h-1v.5h.5v3.5h.5zm.38.96v-.55s.12-.41.93-.41c1.41 0 1.71 1.07 1.69 1.6v2.4h-.5v-2.4c0-.8-.73-1.1-1.2-1.1-.38 0-.76.3-.92.46z" fill="#ed8b00"/></svg>

<!-- by TradingView --><svg width="18" height="18" viewBox="0 0 18 18" xmlns="http://www.w3.org/2000/svg"><path fill="#F0F3FA" d="M0 0h18v18H0z"/><path d="M14.3 10c-.31.3-.73.5-1.16.5-.82 0-1.62-.74-1.62-1.5 0-1 .8-1.5 1.62-1.5.43 0 .85.2 1.15.5H15c-.37-.6-1.06-1-1.86-1C11.96 7 11 7.9 11 9s.96 2 2.14 2c.8 0 1.49-.4 1.86-1h-.7ZM8.5 7H8v4h.5V8.2c.3-.45.65-.7 1-.7h.96V7H9.5c-.31 0-.72.28-1 .54V7ZM4 7H3v.5h.5V11H4V7ZM4.38 7.96v-.55S4.5 7 5.31 7C6.72 7 7.02 8.07 7 8.6V11h-.5V8.6c0-.8-.73-1.1-1.2-1.1-.38 0-.76.3-.92.46Z" fill="#ED8B00"/></svg>
